X: 16311
T: Groves Of Blackpool, The
R: slip jig
M: 9/8
K: Cmajor
c|GAF EFD CDE|GEC DEG A2 c|GAF EFD CDE|GEC DEG A2||
B|cBc dcB AGE|cBc dcB A2 c/d/|ece dcB A<cA|GEC DEG A2||

